X:1
T:Title
%%score { ( 1 3 ) | ( 2 4 ) }
L:1/8
M:4/4
K:C
V:1 treble nm="Grand Piano"
V:3 treble 
V:2 bass 
V:4 bass 
V:1
 z4 z2[Q:1/4=100] [CE]>[DF] | [EG]2 [Ge]>[Fd] [Ec]2 [EB]>[EA] | [EG]2 [DF]>[CE] [B,D]2 [B,D]>[CE] | %3
 F2 G>A B2 f>f | [Ge]6 [CE]>[DF] | [EG]2 [Ge]>[Fd] [Ec]2 [EB]>[EA] | %6
 [EG]2 [DF]>[CE] [B,D]2 [B,D]>[CE] | F2 G>A B2 e>d |[M:3/4] [Ec]6 |[M:1/4] [Ge]>[Ge] | %10
[M:4/4] d2 G>G G2 e>d | [Ec]2 [EG]>[EG] [EG]2 [Ge]>[Ge] | [^Fd]2 [Fd]>[Fc] [GB]2 [FB]>[FA] | %13
 G6 z2 | [EG]2 [Ge]>[Fd] [Ec]2 [EB]>[EA] | [EG]2 [DF]>[CE] [B,D]2 [B,D]>[CE] | F2 G>A B2 e>d | %17
[M:7/4] [Ec]6 z2 z2 z4 |] %18
V:2
 z4 z2 [C,G,]>[C,G,] | [C,C]2 [C,C]>[C,C] [C,G,]2 [C,G,]>[C,G,] | %2
 [C,C]2 [C,G,]>[C,G,] [G,,G,]2 [G,,G,]>[G,,G,] | [G,B,D]2 [G,B,D]>[G,CD] [G,DG]2 [G,B,G]>[G,B,G] | %4
 [C,C]6 [C,G,]>[C,G,] | [C,C]2 [C,C]>[C,C] [C,G,]2 [C,G,]>[C,G,] | %6
 [C,C]2 [C,G,]>[C,G,] [G,,G,]2 [G,,G,]>[G,,G,] | [G,B,D]2 [G,B,D]>[G,CD] [G,DG]2 [G,CG]>[G,B,F] | %8
[M:3/4][K:bass] [C,G,]6 |[M:1/4] [C,C]>[C,C] | %10
[M:4/4][K:treble] [G,B,G]2 [G,B,F]>[G,B,F] [G,B,F]2 [G,CG]>[G,B,F] | %11
 [C,C]2 [C,C]>[C,C] [C,C]2 [C,C]>[C,C] | [D,A,]2 [D,A,]>[D,A,] [D,D]2 [D,D]>[D,C] | [B,D]2 z2 z4 | %14
 [C,C]2 [C,C]>[C,C] [C,G,]2 [C,G,]>[C,G,] | [C,C]2 [C,G,]>[C,G,] [G,,G,]2 [G,,G,]>[G,,G,] | %16
 [G,B,D]2 [G,B,D]>[G,CD] [G,DG]2 [G,CG]>[G,B,F] |[M:7/4][K:bass] [C,G,]6 z2 z2 z4 |] %18
V:3
 x8 | x8 | x8 | x8 | x8 | x8 | x8 | x8 |[M:3/4] x6 |[M:1/4] x2 |[M:4/4] x8 | x8 | x8 | %13
 z2 DE F2 E>[DF] | x8 | x8 | x8 |[M:7/4] x14 |] %18
V:4
 x8 | x8 | x8 | x8 | x8 | x8 | x8 | x8 |[M:3/4][K:bass] x6 |[M:1/4] x2 |[M:4/4][K:treble] x8 | x8 | %12
 x8 | G,2- [G,-B,][G,-C] [G,D]2 [C,C]>[C,C] | x8 | x8 | x8 |[M:7/4][K:bass] x14 |] %18

